X:353
T: GLUECK AUF DER STEIGER KOEMMT
N: E1512
O: Europa, Mitteleuropa, Deutschland
R: Staende -, Bergmanns - Lied
M: 4/4
L: 1/16
K: G
 | G8F4A4 | G8z8 |
B8A4c4 | B8z4
G2A2 | B4B4B4A2B2 | c4A3AA4
A2B2 | c4c4c4B2c2 | d4B3BB4
A4 | G8F8 | G4e4d4
c2A2 | B8A8 | G8z8

@@@ Tune index: 5037
